public/assets/images/pep/tff2.svg

<svg width="360" height="360" viewBox="0 0 360 360" fill="none" xmlns="http://www.w3.org/2000/svg">
<path d="M297 289.598C296.1 294.698 294.2 296.798 288.8 296.798C271.5 296.798 254 296.798 236.7 296.798C217.8 296.798 199.1 296.798 180.1 296.798C144.3 296.798 108.6 296.798 73.0996 296.798C65.1996 296.798 62.7996 294.498 62.7996 286.798C62.7996 215.998 62.7996 145.198 62.7996 74.5983C62.7996 73.3983 62.7996 72.2983 62.7996 71.0983C62.9996 65.4983 65.5996 62.8983 70.9996 62.8983C93.8996 62.8983 117 62.8983 139.9 62.8983C188.7 62.8983 237.6 62.8983 286.4 62.8983C287.3 62.8983 288.3 62.8983 289.2 62.8983C294.6 63.0983 296.9 65.4983 296.9 70.7983C296.9 99.0983 296.9 127.098 296.9 155.398C296.9 195.798 296.9 236.298 296.9 276.398C297 280.898 297.7 285.098 297 289.598ZM288.1 56.5983C252.1 57.0983 216.1 56.7983 180.1 56.7983C143.4 56.7983 107 56.7983 70.2996 56.7983C63.4996 56.7983 58.3996 60.4983 56.9996 66.3983C56.2996 68.9983 55.7996 71.4983 56.0996 74.0983C56.9996 87.6983 56.5996 101.198 56.5996 114.998C56.5996 124.998 56.5996 135.298 56.3996 145.398C56.1996 158.498 56.3996 171.798 56.8996 184.898C57.3996 202.398 56.1996 220.198 56.6996 237.698C57.3996 254.998 56.6996 272.498 56.8996 289.798C56.8996 297.698 62.2996 302.398 69.9996 302.898C84.4996 303.598 98.6996 303.598 113.2 303.098C127.9 302.598 142.4 303.098 157.1 302.898C176 302.698 195.2 303.098 214.1 303.098C239.6 303.098 265 303.298 290.5 302.598C298.9 302.398 304.1 297.498 304.1 288.998C304.1 216.598 304.1 144.098 304.1 71.6983C303.8 63.9983 297.9 56.2983 288.1 56.5983Z" fill="white"/>
<path d="M276.5 187.898C276.5 188.798 276.3 189.998 275.8 190.898C275.1 192.498 273.9 193.198 272.1 192.998C270 192.798 270.5 190.898 270.5 189.698C270.5 183.398 270.5 164.698 270.5 158.398H264.4C264.4 182.498 264.4 218.898 264.4 242.998C264.4 245.598 264.4 248.098 260.9 248.098C257.2 248.298 256 247.398 256 243.398C256 230.298 256 217.498 256 204.398C256 202.998 256 201.798 255.8 200.398C255.6 198.798 254.6 197.798 252.8 198.098C251.2 198.298 250.5 199.298 250.5 200.698C250.5 202.998 250.5 205.598 250.5 207.898C250.3 220.298 249.3 232.398 250.3 244.798C250.5 246.898 248.9 247.098 247.5 246.898C245.6 246.698 242.8 248.298 242.1 244.998C241.9 244.298 242.1 243.398 242.1 242.698C242.1 229.798 242.1 216.998 242.1 204.098C242.1 192.898 242.1 169.298 242.1 157.798H236C235.8 163.398 235.8 181.398 236.2 186.998C236.4 189.298 237.1 193.098 233.6 193.298C230.1 193.498 229.6 190.298 229.6 187.198C229.6 177.398 229.6 167.598 229.6 157.498C229.6 150.698 231.9 147.698 238.5 146.998C247.6 146.298 256.7 145.598 265.6 146.798C273.1 147.698 276.6 150.998 276.8 158.698C277 168.998 276.8 178.598 276.5 187.898ZM263.2 141.598C255.5 141.598 247.5 141.598 239.8 141.598C230.5 141.798 223.7 148.598 223.4 157.998C223.2 167.998 222.5 177.898 223.2 187.898C223.7 194.898 225.3 197.698 231.8 199.798C234.1 200.498 235.1 201.898 235.1 204.198C234.9 211.198 235.1 218.198 235.1 225.198C235.1 231.698 235.1 238.498 235.1 245.098C235.1 251.198 237.4 253.498 243.5 253.498C249.1 253.498 255 253.498 260.6 253.498C268.1 253.498 270.2 251.398 270.2 244.198C270.2 230.898 270.2 217.598 270.2 203.998C270.2 201.698 270.7 200.498 273.2 199.598C280 197.498 281.8 194.198 281.8 187.198C281.8 178.298 281.8 169.198 281.8 160.298C282.2 147.998 275.8 141.598 263.2 141.598Z" fill="white"/>
<path d="M252.4 110.897C257.8 110.897 262 115.097 262 120.497C262 125.897 257.8 130.097 252.4 130.097C247 130.097 242.8 125.897 242.8 120.497C242.9 115.297 247.3 110.897 252.4 110.897ZM252.4 134.897C260.3 134.897 266.7 128.597 266.7 120.597C266.7 112.597 260.4 106.297 252.4 106.297C244.5 106.297 238.1 112.597 238.1 120.597C238.2 128.397 244.7 134.897 252.4 134.897Z" fill="white"/>
<path d="M204.099 187.898C204.099 188.798 203.899 189.998 203.399 190.898C202.699 192.498 201.499 193.198 199.699 192.998C197.599 192.798 198.099 190.898 198.099 189.698C198.099 183.398 198.099 164.698 198.099 158.398H191.999C191.999 182.498 191.999 218.898 191.999 242.998C191.999 245.598 191.999 248.098 188.499 248.098C184.799 248.298 183.599 247.398 183.599 243.398C183.599 230.298 183.599 217.498 183.599 204.398C183.599 202.998 183.599 201.798 183.399 200.398C183.199 198.798 182.199 197.798 180.399 198.098C178.799 198.298 178.099 199.298 178.099 200.698C178.099 202.998 178.099 205.598 178.099 207.898C177.899 220.298 176.899 232.398 177.899 244.798C178.099 246.898 176.499 247.098 175.099 246.898C173.199 246.698 170.399 248.298 169.699 244.998C169.499 244.298 169.699 243.398 169.699 242.698C169.699 229.798 169.699 216.998 169.699 204.098C169.699 192.898 169.699 169.298 169.699 157.798H163.599C163.399 163.398 163.399 181.398 163.799 186.998C163.999 189.298 164.699 193.098 161.199 193.298C157.699 193.498 157.199 190.298 157.199 187.198C157.199 177.398 157.199 167.598 157.199 157.498C157.199 150.698 159.499 147.698 166.099 146.998C175.199 146.298 184.299 145.598 193.199 146.798C200.699 147.698 204.199 150.998 204.399 158.698C204.599 168.998 204.299 178.598 204.099 187.898ZM190.799 141.598C183.099 141.598 175.099 141.598 167.399 141.598C158.099 141.798 151.299 148.598 150.999 157.998C150.799 167.998 150.099 177.898 150.799 187.898C151.299 194.898 152.899 197.698 159.399 199.798C161.699 200.498 162.699 201.898 162.699 204.198C162.499 211.198 162.699 218.198 162.699 225.198C162.699 231.698 162.699 238.498 162.699 245.098C162.699 251.198 164.999 253.498 171.099 253.498C176.699 253.498 182.599 253.498 188.199 253.498C195.699 253.498 197.799 251.398 197.799 244.198C197.799 230.898 197.799 217.598 197.799 203.998C197.799 201.698 198.299 200.498 200.799 199.598C207.599 197.498 209.399 194.198 209.399 187.198C209.399 178.298 209.399 169.198 209.399 160.298C209.699 147.998 203.399 141.598 190.799 141.598Z" fill="white"/>
<path d="M179.999 110.897C185.399 110.897 189.599 115.097 189.599 120.497C189.599 125.897 185.399 130.097 179.999 130.097C174.599 130.097 170.399 125.897 170.399 120.497C170.399 115.297 174.899 110.897 179.999 110.897ZM179.999 134.897C187.899 134.897 194.299 128.597 194.299 120.597C194.299 112.597 187.999 106.297 179.999 106.297C172.099 106.297 165.699 112.597 165.699 120.597C165.699 128.397 172.299 134.897 179.999 134.897Z" fill="white"/>
<path d="M131.699 187.898C131.699 188.798 131.499 189.998 130.999 190.898C130.299 192.498 129.099 193.198 127.299 192.998C125.199 192.798 125.699 190.898 125.699 189.698C125.699 183.398 125.699 164.698 125.699 158.398H119.599C119.599 182.498 119.599 218.898 119.599 242.998C119.599 245.598 119.599 248.098 116.099 248.098C112.399 248.298 111.199 247.398 111.199 243.398C111.199 230.298 111.199 217.498 111.199 204.398C111.199 202.998 111.199 201.798 110.999 200.398C110.799 198.798 109.799 197.798 107.999 198.098C106.399 198.298 105.699 199.298 105.699 200.698C105.699 202.998 105.699 205.598 105.699 207.898C105.499 220.298 104.499 232.398 105.499 244.798C105.699 246.898 104.099 247.098 102.699 246.898C100.799 246.698 97.9993 248.298 97.2993 244.998C97.0993 244.298 97.2993 243.398 97.2993 242.698C97.2993 229.798 97.2993 216.998 97.2993 204.098C97.2993 192.898 97.2993 169.298 97.2993 157.798H90.9993C90.7993 163.398 90.7993 181.398 91.1993 186.998C91.3993 189.298 92.0993 193.098 88.5993 193.298C85.0993 193.498 84.5993 190.298 84.5993 187.198C84.5993 177.398 84.5993 167.598 84.5993 157.498C84.5993 150.698 86.8993 147.698 93.4993 146.998C102.599 146.298 111.699 145.598 120.599 146.798C128.099 147.698 131.599 150.998 131.799 158.698C132.099 168.998 131.899 178.598 131.699 187.898ZM118.299 141.598C110.599 141.598 102.599 141.598 94.8993 141.598C85.5993 141.798 78.7993 148.598 78.4993 157.998C78.2993 167.998 77.5993 177.898 78.2993 187.898C78.7993 194.898 80.3993 197.698 86.8993 199.798C89.1993 200.498 90.1993 201.898 90.1993 204.198C89.9993 211.198 90.1993 218.198 90.1993 225.198C90.1993 231.698 90.1993 238.498 90.1993 245.098C90.1993 251.198 92.4993 253.498 98.5993 253.498C104.199 253.498 110.099 253.498 115.699 253.498C123.199 253.498 125.299 251.398 125.299 244.198C125.299 230.898 125.299 217.598 125.299 203.998C125.299 201.698 125.799 200.498 128.299 199.598C135.099 197.498 136.899 194.198 136.899 187.198C136.899 178.298 136.899 169.198 136.899 160.298C137.299 147.998 130.999 141.598 118.299 141.598Z" fill="white"/>
<path d="M107.599 110.897C112.999 110.897 117.199 115.097 117.199 120.497C117.199 125.897 112.999 130.097 107.599 130.097C102.199 130.097 97.9988 125.897 97.9988 120.497C97.9988 115.297 102.399 110.897 107.599 110.897ZM107.599 134.897C115.499 134.897 121.899 128.597 121.899 120.597C121.899 112.597 115.599 106.297 107.599 106.297C99.6988 106.297 93.2988 112.597 93.2988 120.597C93.2988 128.397 99.7988 134.897 107.599 134.897Z" fill="white"/>
</svg>

<?xml version="1.0" encoding="utf-8"?>
<!-- Generator: Adobe Illustrator 25.2.1, SVG Export Plug-In . SVG Version: 6.00 Build 0)  -->
<svg version="1.1" id="Layer_1" xmlns="http://www.w3.org/2000/svg" xmlns:xlink="http://www.w3.org/1999/xlink" x="0px" y="0px"
	 viewBox="0 0 360 360" style="enable-background:new 0 0 360 360;" xml:space="preserve">
<style type="text/css">
	.st0{fill:#02E30F;}
</style>
<g>
	<path class="st0" d="M297,289.6c-0.9,5.1-2.8,7.2-8.2,7.2c-17.3,0-34.8,0-52.1,0c-18.9,0-37.6,0-56.6,0l0,0c-35.8,0-71.5,0-107,0
		c-7.9,0-10.3-2.3-10.3-10c0-70.8,0-141.6,0-212.2c0-1.2,0-2.3,0-3.5c0.2-5.6,2.8-8.2,8.2-8.2c22.9,0,46,0,68.9,0
		c48.8,0,97.7,0,146.5,0c0.9,0,1.9,0,2.8,0c5.4,0.2,7.7,2.6,7.7,7.9c0,28.3,0,56.3,0,84.6c0,40.4,0,80.9,0,121
		C297,280.9,297.7,285.1,297,289.6 M288.1,56.6c-36,0.5-72,0.2-108,0.2c-36.7,0-73.1,0-109.8,0c-6.8,0-11.9,3.7-13.3,9.6
		c-0.7,2.6-1.2,5.1-0.9,7.7c0.9,13.6,0.5,27.1,0.5,40.9c0,10,0,20.3-0.2,30.4c-0.2,13.1,0,26.4,0.5,39.5c0.5,17.5-0.7,35.3-0.2,52.8
		c0.7,17.3,0,34.8,0.2,52.1c0,7.9,5.4,12.6,13.1,13.1c14.5,0.7,28.7,0.7,43.2,0.2c14.7-0.5,29.2,0,43.9-0.2
		c18.9-0.2,38.1,0.2,57,0.2c25.5,0,50.9,0.2,76.4-0.5c8.4-0.2,13.6-5.1,13.6-13.6c0-72.4,0-144.9,0-217.3
		C303.8,64,297.9,56.3,288.1,56.6"/>
	<g>
		<g>
			<path class="st0" d="M276.5,187.9c0,0.9-0.2,2.1-0.7,3c-0.7,1.6-1.9,2.3-3.7,2.1c-2.1-0.2-1.6-2.1-1.6-3.3c0-6.3,0-25,0-31.3
				h-6.1c0,24.1,0,60.5,0,84.6c0,2.6,0,5.1-3.5,5.1c-3.7,0.2-4.9-0.7-4.9-4.7c0-13.1,0-25.9,0-39c0-1.4,0-2.6-0.2-4
				c-0.2-1.6-1.2-2.6-3-2.3c-1.6,0.2-2.3,1.2-2.3,2.6c0,2.3,0,4.9,0,7.2c-0.2,12.4-1.2,24.5-0.2,36.9c0.2,2.1-1.4,2.3-2.8,2.1
				c-1.9-0.2-4.7,1.4-5.4-1.9c-0.2-0.7,0-1.6,0-2.3c0-12.9,0-25.7,0-38.6l0,0c0-11.2,0-34.8,0-46.3h-6.1c-0.2,5.6-0.2,23.6,0.2,29.2
				c0.2,2.3,0.9,6.1-2.6,6.3c-3.5,0.2-4-3-4-6.1c0-9.8,0-19.6,0-29.7c0-6.8,2.3-9.8,8.9-10.5c9.1-0.7,18.2-1.4,27.1-0.2
				c7.5,0.9,11,4.2,11.2,11.9C277,169,276.8,178.6,276.5,187.9 M263.2,141.6c-7.7,0-15.7,0-23.4,0c-9.3,0.2-16.1,7-16.4,16.4
				c-0.2,10-0.9,19.9-0.2,29.9c0.5,7,2.1,9.8,8.6,11.9c2.3,0.7,3.3,2.1,3.3,4.4c-0.2,7,0,14,0,21c0,6.5,0,13.3,0,19.9
				c0,6.1,2.3,8.4,8.4,8.4c5.6,0,11.5,0,17.1,0c7.5,0,9.6-2.1,9.6-9.3c0-13.3,0-26.6,0-40.2c0-2.3,0.5-3.5,3-4.4
				c6.8-2.1,8.6-5.4,8.6-12.4c0-8.9,0-18,0-26.9C282.2,148,275.8,141.6,263.2,141.6"/>
			<path class="st0" d="M252.4,110.9c5.4,0,9.6,4.2,9.6,9.6c0,5.4-4.2,9.6-9.6,9.6c-5.4,0-9.6-4.2-9.6-9.6
				C242.9,115.3,247.3,110.9,252.4,110.9 M252.4,134.9c7.9,0,14.3-6.3,14.3-14.3s-6.3-14.3-14.3-14.3c-7.9,0-14.3,6.3-14.3,14.3
				C238.2,128.4,244.7,134.9,252.4,134.9"/>
		</g>
		<g>
			<path class="st0" d="M204.1,187.9c0,0.9-0.2,2.1-0.7,3c-0.7,1.6-1.9,2.3-3.7,2.1c-2.1-0.2-1.6-2.1-1.6-3.3c0-6.3,0-25,0-31.3
				h-6.1c0,24.1,0,60.5,0,84.6c0,2.6,0,5.1-3.5,5.1c-3.7,0.2-4.9-0.7-4.9-4.7c0-13.1,0-25.9,0-39c0-1.4,0-2.6-0.2-4
				c-0.2-1.6-1.2-2.6-3-2.3c-1.6,0.2-2.3,1.2-2.3,2.6c0,2.3,0,4.9,0,7.2c-0.2,12.4-1.2,24.5-0.2,36.9c0.2,2.1-1.4,2.3-2.8,2.1
				c-1.9-0.2-4.7,1.4-5.4-1.9c-0.2-0.7,0-1.6,0-2.3c0-12.9,0-25.7,0-38.6l0,0c0-11.2,0-34.8,0-46.3h-6.1c-0.2,5.6-0.2,23.6,0.2,29.2
				c0.2,2.3,0.9,6.1-2.6,6.3s-4-3-4-6.1c0-9.8,0-19.6,0-29.7c0-6.8,2.3-9.8,8.9-10.5c9.1-0.7,18.2-1.4,27.1-0.2
				c7.5,0.9,11,4.2,11.2,11.9C204.6,169,204.3,178.6,204.1,187.9 M190.8,141.6c-7.7,0-15.7,0-23.4,0c-9.3,0.2-16.1,7-16.4,16.4
				c-0.2,10-0.9,19.9-0.2,29.9c0.5,7,2.1,9.8,8.6,11.9c2.3,0.7,3.3,2.1,3.3,4.4c-0.2,7,0,14,0,21c0,6.5,0,13.3,0,19.9
				c0,6.1,2.3,8.4,8.4,8.4c5.6,0,11.5,0,17.1,0c7.5,0,9.6-2.1,9.6-9.3c0-13.3,0-26.6,0-40.2c0-2.3,0.5-3.5,3-4.4
				c6.8-2.1,8.6-5.4,8.6-12.4c0-8.9,0-18,0-26.9C209.7,148,203.4,141.6,190.8,141.6"/>
			<path class="st0" d="M180,110.9c5.4,0,9.6,4.2,9.6,9.6c0,5.4-4.2,9.6-9.6,9.6s-9.6-4.2-9.6-9.6
				C170.4,115.3,174.9,110.9,180,110.9 M180,134.9c7.9,0,14.3-6.3,14.3-14.3s-6.3-14.3-14.3-14.3c-7.9,0-14.3,6.3-14.3,14.3
				C165.7,128.4,172.3,134.9,180,134.9"/>
		</g>
		<g>
			<path class="st0" d="M131.7,187.9c0,0.9-0.2,2.1-0.7,3c-0.7,1.6-1.9,2.3-3.7,2.1c-2.1-0.2-1.6-2.1-1.6-3.3c0-6.3,0-25,0-31.3
				h-6.1c0,24.1,0,60.5,0,84.6c0,2.6,0,5.1-3.5,5.1c-3.7,0.2-4.9-0.7-4.9-4.7c0-13.1,0-25.9,0-39c0-1.4,0-2.6-0.2-4
				c-0.2-1.6-1.2-2.6-3-2.3c-1.6,0.2-2.3,1.2-2.3,2.6c0,2.3,0,4.9,0,7.2c-0.2,12.4-1.2,24.5-0.2,36.9c0.2,2.1-1.4,2.3-2.8,2.1
				c-1.9-0.2-4.7,1.4-5.4-1.9c-0.2-0.7,0-1.6,0-2.3c0-12.9,0-25.7,0-38.6l0,0c0-11.2,0-34.8,0-46.3H91c-0.2,5.6-0.2,23.6,0.2,29.2
				c0.2,2.3,0.9,6.1-2.6,6.3s-4-3-4-6.1c0-9.8,0-19.6,0-29.7c0-6.8,2.3-9.8,8.9-10.5c9.1-0.7,18.2-1.4,27.1-0.2
				c7.5,0.9,11,4.2,11.2,11.9C132.1,169,131.9,178.6,131.7,187.9 M118.3,141.6c-7.7,0-15.7,0-23.4,0c-9.3,0.2-16.1,7-16.4,16.4
				c-0.2,10-0.9,19.9-0.2,29.9c0.5,7,2.1,9.8,8.6,11.9c2.3,0.7,3.3,2.1,3.3,4.4c-0.2,7,0,14,0,21c0,6.5,0,13.3,0,19.9
				c0,6.1,2.3,8.4,8.4,8.4c5.6,0,11.5,0,17.1,0c7.5,0,9.6-2.1,9.6-9.3c0-13.3,0-26.6,0-40.2c0-2.3,0.5-3.5,3-4.4
				c6.8-2.1,8.6-5.4,8.6-12.4c0-8.9,0-18,0-26.9C137.3,148,131,141.6,118.3,141.6"/>
			<path class="st0" d="M107.6,110.9c5.4,0,9.6,4.2,9.6,9.6c0,5.4-4.2,9.6-9.6,9.6c-5.4,0-9.6-4.2-9.6-9.6
				C98,115.3,102.4,110.9,107.6,110.9 M107.6,134.9c7.9,0,14.3-6.3,14.3-14.3s-6.3-14.3-14.3-14.3c-7.9,0-14.3,6.3-14.3,14.3
				C93.3,128.4,99.8,134.9,107.6,134.9"/>
		</g>
	</g>
</g>
</svg>
